imgs/server-feat1.svg

<svg width="83" height="61" viewBox="0 0 83 61" fill="none" xmlns="http://www.w3.org/2000/svg">
<path d="M0 61C1.41434e-06 44.8218 6.42677 29.3062 17.8665 17.8665C29.3062 6.42677 44.8218 -1.92923e-07 61 0V33.953C53.8267 33.953 46.9472 36.8026 41.8749 41.8749C36.8026 46.9472 33.953 53.8267 33.953 61H0Z" fill="#FFEDF2"/>
<path d="M61 19H43C42.4696 19 41.9609 19.2107 41.5858 19.5858C41.2107 19.9609 41 20.4696 41 21V59C41 59.5304 41.2107 60.0391 41.5858 60.4142C41.9609 60.7893 42.4696 61 43 61H61.012V19H61ZM56 42H46C45.7348 42 45.4804 41.8946 45.2929 41.7071C45.1054 41.5196 45 41.2652 45 41C45 40.7348 45.1054 40.4804 45.2929 40.2929C45.4804 40.1054 45.7348 40 46 40H56C56.2652 40 56.5196 40.1054 56.7071 40.2929C56.8946 40.4804 57 40.7348 57 41C57 41.2652 56.8946 41.5196 56.7071 41.7071C56.5196 41.8946 56.2652 42 56 42ZM56 35H46C45.7348 35 45.4804 34.8946 45.2929 34.7071C45.1054 34.5196 45 34.2652 45 34C45 33.7348 45.1054 33.4804 45.2929 33.2929C45.4804 33.1054 45.7348 33 46 33H56C56.2652 33 56.5196 33.1054 56.7071 33.2929C56.8946 33.4804 57 33.7348 57 34C57 34.2652 56.8946 34.5196 56.7071 34.7071C56.5196 34.8946 56.2652 35 56 35ZM56 28H46C45.7348 28 45.4804 27.8946 45.2929 27.7071C45.1054 27.5196 45 27.2652 45 27C45 26.7348 45.1054 26.4804 45.2929 26.2929C45.4804 26.1054 45.7348 26 46 26H56C56.2652 26 56.5196 26.1054 56.7071 26.2929C56.8946 26.4804 57 26.7348 57 27C57 27.2652 56.8946 27.5196 56.7071 27.7071C56.5196 27.8946 56.2652 28 56 28Z" fill="#FD3E72"/>
<path d="M81 19H63V61H81C81.5304 61 82.0391 60.7893 82.4142 60.4142C82.7893 60.0391 83 59.5304 83 59V21C83 20.4696 82.7893 19.9609 82.4142 19.5858C82.0391 19.2107 81.5304 19 81 19ZM78 42H68C67.7348 42 67.4804 41.8946 67.2929 41.7071C67.1054 41.5196 67 41.2652 67 41C67 40.7348 67.1054 40.4804 67.2929 40.2929C67.4804 40.1054 67.7348 40 68 40H78C78.2652 40 78.5196 40.1054 78.7071 40.2929C78.8946 40.4804 79 40.7348 79 41C79 41.2652 78.8946 41.5196 78.7071 41.7071C78.5196 41.8946 78.2652 42 78 42ZM78 35H68C67.7348 35 67.4804 34.8946 67.2929 34.7071C67.1054 34.5196 67 34.2652 67 34C67 33.7348 67.1054 33.4804 67.2929 33.2929C67.4804 33.1054 67.7348 33 68 33H78C78.2652 33 78.5196 33.1054 78.7071 33.2929C78.8946 33.4804 79 33.7348 79 34C79 34.2652 78.8946 34.5196 78.7071 34.7071C78.5196 34.8946 78.2652 35 78 35ZM78 28H68C67.7348 28 67.4804 27.8946 67.2929 27.7071C67.1054 27.5196 67 27.2652 67 27C67 26.7348 67.1054 26.4804 67.2929 26.2929C67.4804 26.1054 67.7348 26 68 26H78C78.2652 26 78.5196 26.1054 78.7071 26.2929C78.8946 26.4804 79 26.7348 79 27C79 27.2652 78.8946 27.5196 78.7071 27.7071C78.5196 27.8946 78.2652 28 78 28Z" fill="#FF91AF"/>
</svg>

<svg width="83" height="61" fill="none" xmlns="http://www.w3.org/2000/svg"><path d="M0 61A61 61 0 0161 0v33.953A27.047 27.047 0 0033.953 61H0z" fill="#FFEDF2"/><path d="M61 19H43a2 2 0 00-2 2v38a2 2 0 002 2h18.012V19H61zm-5 23H46a1 1 0 010-2h10a1 1 0 010 2zm0-7H46a1 1 0 010-2h10a1 1 0 010 2zm0-7H46a1 1 0 010-2h10a1 1 0 010 2z" fill="#FD3E72"/><path d="M81 19H63v42h18a2 2 0 002-2V21a2 2 0 00-2-2zm-3 23H68a1 1 0 010-2h10a1 1 0 010 2zm0-7H68a1 1 0 010-2h10a1 1 0 010 2zm0-7H68a1 1 0 010-2h10a1 1 0 010 2z" fill="#FF91AF"/></svg>
